src/status/scalable/notification-printer-symbolic.svg

<svg viewBox="0 0 48 48" xmlns="http://www.w3.org/2000/svg">
 <path d="m11 5c-1.091 0-2 0.909-2 2v12h-1.5c-1.359 0-2.5 1.141-2.5 2.5v14c0 1.359 1.141 2.5 2.5 2.5h2.5v3c0 1.091 0.909 2 2 2h24c1.091 0 2-0.909 2-2v-3h2.5c1.359 0 2.5-1.141 2.5-2.5v-14c0-1.359-1.141-2.5-2.5-2.5h-1.5v-10l-4-4zm0 2h18v7h8v5h-26zm29 27c0.552 0 1 0.448 1 1s-0.448 1-1 1-1-0.448-1-1 0.448-1 1-1zm-28-1h24v8h-24z" color="#eceff4" color-rendering="auto" fill="#eceff4" image-rendering="auto" shape-rendering="auto" solid-color="#eceff4000" isolation="auto" mix-blend-mode="normal" white-space="normal"/>
</svg>

<svg xmlns="http://www.w3.org/2000/svg" viewBox="0 0 48 48">
 <path d="M 11,5 C 9.909,5 9,5.909 9,7 L 9,19 7.5,19 C 6.141,19 5,20.141 5,21.5 l 0,14 C 5,36.859 6.141,38 7.5,38 l 2.5,0 0,3 c 0,1.091 0.909,2 2,2 l 24,0 c 1.091,0 2,-0.909 2,-2 l 0,-3 2.5,0 c 1.359,0 2.5,-1.141 2.5,-2.5 l 0,-14 C 43,20.141 41.859,19 40.5,19 L 39,19 39,9 35,5 Z m 0,2 18,0 0,7 8,0 0,5 -26,0 z m 29,27 c 0.552,0 1,0.448 1,1 0,0.552 -0.448,1 -1,1 -0.552,0 -1,-0.448 -1,-1 0,-0.552 0.448,-1 1,-1 z m -28,-1 24,0 0,8 -24,0 z" mix-blend-mode="normal" isolation="auto" white-space="normal" solid-color="#eceff4000" solid-opacity="1" style="visibility:visible;shape-rendering:auto;color-interpolation-filters:linearRGB;fill:#eceff4;opacity:1;image-rendering:auto;fill-opacity:1;stroke:none;display:inline;color:#eceff4;fill-rule:nonzero;color-rendering:auto;color-interpolation:sRGB"/>
</svg>
